X:12
T:The Legacy Jig
M:6/8
L:1/8
K:G major
"G"G3 B3 | g3 gab | G3 B3 | "D7"dBA AFD |
"G"G3 BAB | g3 gab | "C"age "D7"edB | [1 dBA AFD :| [2 dBA ABd |
|: "Em"e3 edB | "Bm"ded dBd | "Em"e3 edB | "G"gdB "D"ABd |"Em"e3 edB |
 "Bm"ded def | "Em"g3 e3 | [1 "D7"dBA ABd :| [2 "D7"dBA AF!D.C.!D :|[3 "D7"dBA "G"!fine!G3 |]
